X: 502
T:Jim Donoghue's
N:"a whistle player from Monastereden, Co. Sligo"
M:4/4
L:1/8
S:B.Flaherty
Z:B.Black
N:Posted to the woodenflute mailing list March 2002
R:reel
K:D
DF|A2-AF BF-F2|AF-F2 EFDF|A2-AF BF-F2|EDFE D2 DF|
AF F2 BF F2 | AF F2 ABde | f2-fe dBAF |1 EDFE D2 :|
|2 EDFE D2||Ad|f2-fe f2-fe|dfed BAFA|e2-ed e2 de|
fedf e2 Ad|f2-fe f2-fe|dfed BAFA|ABde f2 ef|
|1dBAF ED :|2 dBAF EDDF ||

